dist/assets/img/questions/3/answers/1.svg

<svg width="612" height="288" viewBox="0 0 612 288" fill="none" xmlns="http://www.w3.org/2000/svg">
<g filter="url(#filter0_di_1495_64414)">
<path fill-rule="evenodd" clip-rule="evenodd" d="M81.7876 28C77.7241 28 74.3061 31.0463 73.8403 35.083L67.5406 89.6803C67.2084 92.5595 65.3308 95.0012 62.7363 96.2929C53.629 100.827 43.0718 108.534 40.0032 119.115C39.9832 119.184 40.0598 119.241 40.1197 119.201C43.2517 117.128 48.6067 113.584 55.1958 110.907C60.1436 108.896 64.8241 113.223 64.212 118.528L51.6865 227.083C51.1384 231.833 54.8521 236 59.6337 236H541.528C545.591 236 549.009 232.954 549.475 228.917L571.629 36.917C572.177 32.1669 568.463 28 563.681 28H81.7876Z" fill="#FFF0CB"/>
</g>
<defs>
<filter id="filter0_di_1495_64414" x="0" y="0" width="611.682" height="288" filterUnits="userSpaceOnUse" color-interpolation-filters="sRGB">
<feFlood flood-opacity="0" result="BackgroundImageFix"/>
<feColorMatrix in="SourceAlpha" type="matrix" values="0 0 0 0 0 0 0 0 0 0 0 0 0 0 0 0 0 0 127 0" result="hardAlpha"/>
<feOffset dy="12"/>
<feGaussianBlur stdDeviation="20"/>
<feComposite in2="hardAlpha" operator="out"/>
<feColorMatrix type="matrix" values="0 0 0 0 1 0 0 0 0 1 0 0 0 0 1 0 0 0 1 0"/>
<feBlend mode="normal" in2="BackgroundImageFix" result="effect1_dropShadow_1495_64414"/>
<feBlend mode="normal" in="SourceGraphic" in2="effect1_dropShadow_1495_64414" result="shape"/>
<feColorMatrix in="SourceAlpha" type="matrix" values="0 0 0 0 0 0 0 0 0 0 0 0 0 0 0 0 0 0 127 0" result="hardAlpha"/>
<feOffset dy="-4"/>
<feGaussianBlur stdDeviation="4"/>
<feComposite in2="hardAlpha" operator="arithmetic" k2="-1" k3="1"/>
<feColorMatrix type="matrix" values="0 0 0 0 0.883659 0 0 0 0 0.635314 0 0 0 0 0.0558422 0 0 0 0.4 0"/>
<feBlend mode="normal" in2="shape" result="effect2_innerShadow_1495_64414"/>
</filter>
</defs>
</svg>

<svg width="612" height="288" viewBox="0 0 612 288" fill="none" xmlns="http://www.w3.org/2000/svg"><g filter="url(#filter0_di_1495_64414)"><path fill-rule="evenodd" clip-rule="evenodd" d="M81.788 28a8 8 0 00-7.948 7.083l-6.3 54.597c-.332 2.88-2.21 5.321-4.804 6.613-9.107 4.534-19.664 12.241-22.733 22.822a.077.077 0 00.117.086c3.132-2.073 8.487-5.617 15.076-8.294 4.948-2.011 9.628 2.316 9.016 7.621L51.686 227.083c-.548 4.75 3.166 8.917 7.948 8.917h481.894a8 8 0 007.947-7.083l22.154-192c.548-4.75-3.166-8.917-7.948-8.917H81.788z" fill="#FFF0CB"/></g><defs><filter id="filter0_di_1495_64414" x="0" y="0" width="611.682" height="288" filterUnits="userSpaceOnUse" color-interpolation-filters="sRGB"><feFlood flood-opacity="0" result="BackgroundImageFix"/><feColorMatrix in="SourceAlpha" values="0 0 0 0 0 0 0 0 0 0 0 0 0 0 0 0 0 0 127 0" result="hardAlpha"/><feOffset dy="12"/><feGaussianBlur stdDeviation="20"/><feComposite in2="hardAlpha" operator="out"/><feColorMatrix values="0 0 0 0 1 0 0 0 0 1 0 0 0 0 1 0 0 0 1 0"/><feBlend in2="BackgroundImageFix" result="effect1_dropShadow_1495_64414"/><feBlend in="SourceGraphic" in2="effect1_dropShadow_1495_64414" result="shape"/><feColorMatrix in="SourceAlpha" values="0 0 0 0 0 0 0 0 0 0 0 0 0 0 0 0 0 0 127 0" result="hardAlpha"/><feOffset dy="-4"/><feGaussianBlur stdDeviation="4"/><feComposite in2="hardAlpha" operator="arithmetic" k2="-1" k3="1"/><feColorMatrix values="0 0 0 0 0.883659 0 0 0 0 0.635314 0 0 0 0 0.0558422 0 0 0 0.4 0"/><feBlend in2="shape" result="effect2_innerShadow_1495_64414"/></filter></defs></svg>
